!!!COM: Scriabin, Alexander
!!!OTL: Prelude
!!!OPR: 4 Preludes
!!!OPS: 37
!!!ONM: 4
!!!ODT: 1903
!!!AGN: Prelude
**kern	**kern
*staff2	*staff1
*clefF4	*clefG2
*k[b-e-]	*k[b-e-]
*g:	*g:
*M3/4	*M3/4
24DDLL 24D	8r
24AA-X 24A-X	.
24CJJ 24c	.
=1	=1
8E-L 8e-	8.r
16r	.
16E-Jk 16e-	16a-X 16cc
4.C 4.c	4.f#X 4.b- 4.ee-
8DD 8D	8f# 8b-
=2	=2
8BB- 8B-	8fn 8a-X 8dd
40DDLLL	40DLLL
40BB-	40A-X
40F	40d
40D	40d
40B-JJJ	40a-JJJ
24fLL	24ddLL
24B-	24a-
24D	24d
24F	24d
24BB-	24A-
24DDJJ	24DJJ
8r	4r
24DDLL 24D	.
24EE- 24E-	.
24GGJJ 24G	.
=3	=3
8BB-L 8B-	8.r
16r	.
16BB-Jk 16B-	16e- 16g
4.GG 4.G	4.c#X 4.e#X 4.b-
8GG 8G	8B- 8c# 8e#
=4	=4
8DD 8D	8A 8d 8f#X 8a
40DDLLL	40DLLL
40AA	40A
40F#X	40d
40D	40d
40AJJJ	40aJJJ
24f#XLL	24ddLL
24A	24a
24D	24d
24F#	24d
24AA	24A
24DDJJ	24DJJ
8r	4r
24CCLL 24C	.
24EE- 24E-	.
24FF#XJJ 24F#X	.
=5	=5
8BB-L 8B-	8.r
16r	.
16CCJk 16C	[16B-
4.CC 4.C	4.F#X 4.B-] 4.e- 4.f#X
24BBB-LL 24BB-	16G 16d 16g
24DD 24D	.
.	16r
24GGJJ 24G	.
=6	=6
8BB-L 8B-	8.r
16r	.
*	*clefF4
16BBB-Jk 16BB-	[16G
4.BBB- 4.BB-	4.D 4.G] 4.B- 4.d
24GGGLL 24GG	16E- 16B- 16e-
24BBB- 24BB-	.
.	16r
24EE-JJ 24E-	.
=7	=7
8GGL 8G	8.r
16r	.
16GGGJk 16GG	16E- 16B- 16d
4.AAA 4.AA	4.E- 4.G 4.c#X
8DDD 8DD 8AA	8D 8F#X 8d
=8	=8
8DD 8AA	8D 8F#X 8d
*	*clefG2
40DDLLL	40DLLL
40AA	40A
40F#X	40d
40D	40d
40AJJJ	40aJJJ
24f#XLL	24ddLL
24A	24a
24D	24d
24F#	24d
24AA	24A
24DDJJ	24DJJ
8r	4r
24CCLL 24C	.
24EE- 24E-	.
24FF#XJJ 24F#X	.
=9	=9
8BB-L 8B-	8.r
16r	.
16CCJk 16C	[16B-
4.CC 4.C	4.F#X 4.B-] 4.e- 4.f#X
24BBB-LL 24BB-	16F# 16B- 16d 16f#
24DD 24D	.
.	16r
24FF#XJJ 24F#X	.
=10	=10
8BB-L 8B-	8.r
16r	.
16BBB-Jk 16BB-	16d 16f#X
8EE-L 8E-	8GL 8c#X 8g
16r	16r
16EE-Jk 16E-	16GJk 16c#
8BBB- 8BB-	8D 8G 8d
24FFLL 24F	8r
24AA-X 24A-X	.
24BBnJJ 24Bn	.
=11	=11
8E-L 8e-	8.r
16r	.
16FFJk 16F	[16e-
4.FF 4.F	4.Bn 4.e-] 4.a-X 4.bn
24EE-LL 24E-	16B 16e- 16g 16b
24GG 24G	.
.	16r
24BBnJJ 24Bn	.
=12	=12
8E-L 8e-	8.r
16r	.
16EE-Jk 16E-	16g 16bn
8AA-XL 8A-X	8cL 8f#X 8cc
16r	16r
16AA-Jk 16A-	16cJk 16f#
8EE-L 8E-	4G 4c 4g
24CCL 24C	.
24EE- 24E-	.
24AA-JJ 24A-	.
=13	=13
8CL 8c	8.r
16r	.
16AA-XJk 16A-X	16G 16e- 16g
4.CC 4.C	4e- 4g 4ee-
.	4r
24CC#XLL 24C#X	.
24EE- 24E-	.
24AAnJJ 24An	.
=14	=14
8C#XL 8c#X	8.r
16r	.
16AAJk 16A	16G 16e- 16g
4CC#X 4C#X	4e- 4g 4ee-
4r	4r
=15	=15
4r	4r
4r	4r
4DD 4AA-X 4D	4F#X 4c 4f#X
=16	=16
8GGG 8GG 8D	8G 8Bn 8g
40GGLLL	40GLLL
40D	40B
40G	40g
40G	40g
40dJJJ	40bnJJJ
24gLL	24ggLL
24d	24b
24G	24g
24G	24g
24D	24B
24GGJJ	24GJJ
8r	4r
24GGGLL 24GG	.
24DD-X 24D-X	.
24FFJJ 24F	.
=17	=17
8AA-XL 8A-X	8.r
16r	.
16AA-Jk 16A-	16d-X 16f
4.FF 4.F	4.Bn 4.e- 4.a-X
8GGG 8GG	8B 8e-
=18	=18
8EE- 8E-	8B-X 8d-X 8g
*	*clefF4
40GGGLLL	40GGLLL
40EE-	40D-X
40BB-	40G
40GG	40G
40E-JJJ	40d-XJJJ
24B-LL	24gLL
24E-	24d-
24GG	24G
24BB-	24G
24EE-	24D-
24GGGJJ	24GGJJ
8r	4r
24GGGLL 24GG	.
24AAA-X 24AA-X	.
24CCJJ 24C	.
=19	=19
8EE-L 8E-	8.r
16r	.
16EE-Jk 16E-	16A-X 16c
4.CC 4.C	4.F#X 4.A#X 4.e-
8CC 8C	8F# 8A#
=20	=20
2.GGG 2.GG	2.D 2.G 2.Bn 2.d
==	==
*-	*-
!!!system-decoration: {(s1,s2)}
!!!ENC: Bryan Jacob Bell
!!!END: November 2021 to April 2022
!!!PED: Konstantin Igumnov and Yakov Milstein
!!!PTL: A.N. Skryabin: Polnoe sobranie sochinenii dlia fortepiano (Muzgiz)
